Origami/64x64/apps/ndm.svg

<svg width="64" height="64" version="1" xmlns="http://www.w3.org/2000/svg">
 <g transform="matrix(2,0,0,2,-3,-3.9981654)" style="opacity:.2">
  <path d="m10 5a4.0004 4.0004 0 0 0 -4 4v12a4.0004 4.0004 0 0 0 4 4h3a4.0004 4.0004 0 0 0 0.242188 -0.01172l4.058593 5.41211a4.0004 4.0004 0 0 0 6.398438 0l4.5-6a4.0004 4.0004 0 0 0 -2.199219 -6.267578v-1.12304a4.0004 4.0004 0 0 0 0 -2e-3c0.00868-4.107496-1.844374-7.9648564-5.261719-9.695272-1.817384-0.9202422-3.488054-1.1592146-5.019531-1.2421875a4.0004 4.0004 0 0 0 -2.71875 -1.0703125z"/>
 </g>
 <g transform="matrix(2,0,0,2,-3,-4.9981654)">
  <path d="m10 5a4.0004 4.0004 0 0 0 -4 4v12a4.0004 4.0004 0 0 0 4 4h3a4.0004 4.0004 0 0 0 0.242188 -0.01172l4.058593 5.41211a4.0004 4.0004 0 0 0 6.398438 0l4.5-6a4.0004 4.0004 0 0 0 -2.199219 -6.267578v-1.12304a4.0004 4.0004 0 0 0 0 -2e-3c0.00868-4.107496-1.844374-7.9648564-5.261719-9.695272-1.817384-0.9202422-3.488054-1.1592146-5.019531-1.2421875a4.0004 4.0004 0 0 0 -2.71875 -1.0703125z" style="fill:#e14343"/>
 </g>
 <path d="m17 14.001835v23.999999h6v-16c3.976752 0.0024 7.357852 0.204618 9.152344 1.113282 1.794492 0.908662 2.85952 2.109242 2.847656 6.878906l3 0.0078h-3v10h-6l9 12 9-12h-6v-9.992188c6e-6 -0.0026-6e-6 -0.0052 0-0.0078 0.0128-6.063696-2.42411-10.358344-6.136718-12.238269-3.714262-1.880748-7.84809-1.759392-11.863282-1.76173v-2z" style="opacity:.2"/>
 <path d="m17 13.001835v23.999999h6v-16c3.976752 0.0024 7.357852 0.204618 9.152344 1.113282 1.794492 0.908662 2.85952 2.109242 2.847656 6.878906l3 0.0078h-3v10h-6l9 12 9-12h-6v-9.992188c6e-6 -0.0026-6e-6 -0.0052 0-0.0078 0.0128-6.063696-2.42411-10.358343-6.136718-12.238269-3.714262-1.880749-7.84809-1.759392-11.863282-1.76173v-2z" style="fill:#ffffff"/>
 <path d="m17 5.0019531a8.0008 8.0008 0 0 0 -8 7.9999999v1a8.0008 8.0008 0 0 1 8 -7.9999999h6a8.0008 8.0008 0 0 1 5.4375 2.140625c3.062954 0.1659458 6.404294 0.6438908 10.039062 2.4843749 6.834691 3.460832 10.540798 11.175633 10.523438 19.390625v-0.988281-0.007813a8.0008 8.0008 0 0 0 0 -0.003906c0.01736-8.214992-3.688747-15.929793-10.523438-19.390625-3.634768-1.8404844-6.976108-2.3184292-10.039062-2.484375a8.0008 8.0008 0 0 0 -5.4375 -2.140625h-6zm32 26.265625v1a8.0008 8.0008 0 0 1 5.970703 7.216797 8.0008 8.0008 0 0 0 -5.970703 -8.216797z" style="fill:#ffffff;opacity:.2"/>
</svg>

<svg xmlns="http://www.w3.org/2000/svg" width="64" height="64" version="1">
 <g style="opacity:0.2" transform="matrix(2,0,0,2,-3,-3.9981654)">
  <path d="M 10,5 A 4.0004,4.0004 0 0 0 6,9 v 12 a 4.0004,4.0004 0 0 0 4,4 h 3 a 4.0004,4.0004 0 0 0 0.242188,-0.01172 l 4.058593,5.41211 a 4.0004,4.0004 0 0 0 6.398438,0 l 4.5,-6 A 4.0004,4.0004 0 0 0 26,18.132812 v -1.11914 -0.0039 a 4.0004,4.0004 0 0 0 0,-0.002 C 26.00868,12.900276 24.155626,9.0429156 20.738281,7.3125 18.920897,6.3922578 17.250227,6.1532854 15.71875,6.0703125 A 4.0004,4.0004 0 0 0 13,5 Z"/>
 </g>
 <g transform="matrix(2,0,0,2,-3,-4.9981654)">
  <path style="fill:#e14343" d="M 10,5 A 4.0004,4.0004 0 0 0 6,9 v 12 a 4.0004,4.0004 0 0 0 4,4 h 3 a 4.0004,4.0004 0 0 0 0.242188,-0.01172 l 4.058593,5.41211 a 4.0004,4.0004 0 0 0 6.398438,0 l 4.5,-6 A 4.0004,4.0004 0 0 0 26,18.132812 v -1.11914 -0.0039 a 4.0004,4.0004 0 0 0 0,-0.002 C 26.00868,12.900276 24.155626,9.0429156 20.738281,7.3125 18.920897,6.3922578 17.250227,6.1532854 15.71875,6.0703125 A 4.0004,4.0004 0 0 0 13,5 Z"/>
 </g>
 <path style="opacity:0.2" d="m 17,14.001835 v 23.999999 h 6 v -16 c 3.976752,0.0024 7.357852,0.204618 9.152344,1.113282 1.794492,0.908662 2.85952,2.109242 2.847656,6.878906 l 3,0.0078 h -3 v 10 h -6 l 9,12 9,-12 h -6 v -9.992188 c 6e-6,-0.0026 -6e-6,-0.0052 0,-0.0078 C 41.0128,23.938138 38.57589,19.64349 34.863282,17.763565 31.14902,15.882817 27.015192,16.004173 23,16.001835 v -2 z"/>
 <path style="fill:#ffffff" d="m 17,13.001835 v 23.999999 h 6 v -16 c 3.976752,0.0024 7.357852,0.204618 9.152344,1.113282 1.794492,0.908662 2.85952,2.109242 2.847656,6.878906 l 3,0.0078 h -3 v 10 h -6 l 9,12 9,-12 h -6 v -9.992188 c 6e-6,-0.0026 -6e-6,-0.0052 0,-0.0078 C 41.0128,22.938138 38.57589,18.643491 34.863282,16.763565 31.14902,14.882816 27.015192,15.004173 23,15.001835 v -2 z"/>
 <path style="opacity:0.2;fill:#ffffff" d="M 17 5.0019531 A 8.0008 8.0008 0 0 0 9 13.001953 L 9 14.001953 A 8.0008 8.0008 0 0 1 17 6.0019531 L 23 6.0019531 A 8.0008 8.0008 0 0 1 28.4375 8.1425781 C 31.500454 8.3085239 34.841794 8.7864689 38.476562 10.626953 C 45.311253 14.087785 49.01736 21.802586 49 30.017578 L 49 29.029297 L 49 29.021484 A 8.0008 8.0008 0 0 0 49 29.017578 C 49.01736 20.802586 45.311253 13.087785 38.476562 9.6269531 C 34.841794 7.7864687 31.500454 7.3085239 28.4375 7.1425781 A 8.0008 8.0008 0 0 0 23 5.0019531 L 17 5.0019531 z M 49 31.267578 L 49 32.267578 A 8.0008 8.0008 0 0 1 54.970703 39.484375 A 8.0008 8.0008 0 0 0 49 31.267578 z"/>
</svg>
